site/static/img/page-collecte/etape-2.svg

<svg height="158" viewBox="0 0 157 158" width="157" xmlns="http://www.w3.org/2000/svg" xmlns:xlink="http://www.w3.org/1999/xlink"><mask id="a" fill="#fff"><path d="m0 169.26087h154.337929v-168.86765261h-154.337929z" fill="#fff" fill-rule="evenodd"/></mask><mask id="b" fill="#fff"><path d="m.41099029 76.5252524c0 42.0943106 33.90042721 76.2177666 75.71961161 76.2177666 41.8177091 0 75.7196121-34.123456 75.7196121-76.2177666 0-42.0935679-33.901903-76.21776696-75.7196121-76.21776696-41.8191844 0-75.71961161 34.12419906-75.71961161 76.21776696z" fill="#fff" fill-rule="evenodd"/></mask><g fill="none" fill-rule="evenodd" transform="translate(1)"><path d="m154.111998 77.6339c0 41.890217-33.911786 75.849565-75.7433337 75.849565-41.8322857 0-75.74333335-33.959348-75.74333335-75.849565 0-41.8902174 33.91104765-75.84956522 75.74333335-75.84956522 41.8315477 0 75.7433337 33.95934782 75.7433337 75.84956522" fill="#fff"/><path d="m46.3810929 33.9930522c-3.0365239.6097826-5.8959048 1.9668261-8.1330715 4.1531739-4.4499762 4.3483043-5.3032143 10.3744348-5.8117619 16.2143043-.5543095 6.3713044-1.2082619 12.6805218-5.3541428 17.9165218-3.2284286 4.0777826-6.9270238 8.029913-8.835 12.9096521-3.2926429 8.4216522-2.5892381 19.2476957 6.3299047 23.9138257 3.8661429 2.02374 8.3500715 2.661609 12.7395238 2.711131 7.0185477.079087 14.3397143-1.411 19.7610238-5.751174 2.3065477-1.846348 4.1931191-4.145044 5.8538334-6.562 9.4815714-13.7951305 13.6643571-31.9806957 8.6224286-48.1306957-2.4918096-7.9833478-7.5381667-14.8313913-16.1554286-17.0916522-2.8985-.7605652-6.0435238-.8803043-9.0173095-.2830869" fill="#9e223e"/><g fill="#f5c7a3"><path d="m67.1926476 80.4763739-9.9827381-2.4066087-.411119-6.6588261-11.4227619-8.5583913-.3181191 14.9954783s-11.9475476 3.3793043-12.0479285 3.4753913c10.362119 14.7316087 30.5704285 4.9078261 34.1826666-.8470435"/><path d="m62.458431 55.8385696s.589738-1.8056957 1.5049761-1.167087c.9145.640087.7934524 8.0018261-1.9965476 8.4209131-2.79.4190869.4915715-7.2538261.4915715-7.2538261"/><path d="m39.4189357 55.8385696s-.5904762-1.8056957-1.5049762-1.167087c-.9152381.640087-.7941905 8.0018261 1.9965476 8.4209131 2.79.4190869-.4915714-7.2538261-.4915714-7.2538261"/><path d="m42.5103738 43.7006435 8.4076429-2.8907392 8.4069047 2.8907392 3.2513096 4.6528261-.0420715 9.0233043s-.070119 4.5116522-.7321905 6.3439565c-.6635476 1.8330435-3.2793571 9.8341305-10.8839523 10.2569131-7.6053334-.4227826-10.2211429-8.4238696-10.8839524-10.2569131-.6628095-1.8323043-.7329286-6.3439565-.7329286-6.3439565l.0088572-9.0233043z"/></g><path d="m53.4333714 64.770887c-.0693809 1.3333913-1.1676666 2.3940434-2.5169047 2.3940434-1.3485 0-2.4475238-1.0606521-2.5161667-2.3940434z" fill="#fff"/><path d="m58.3304119 53.3544261c-2.7833571 0-5.0485714 2.2676522-5.0485714 5.0556522 0 2.7872608 2.2652143 5.0556521 5.0485714 5.0556521s5.0485714-2.2683913 5.0485714-5.0556521c0-2.788-2.2652143-5.0556522-5.0485714-5.0556522m0 10.5954348c-3.0498095 0-5.5312857-2.4849566-5.5312857-5.5397826 0-3.054087 2.4814762-5.5397826 5.5312857-5.5397826 3.0505476 0 5.5320238 2.4856956 5.5320238 5.5397826 0 3.054826-2.4814762 5.5397826-5.5320238 5.5397826" fill="#fff"/><path d="m43.8410119 53.3544261c-2.7833571 0-5.0485714 2.2676522-5.0485714 5.0556522 0 2.7872608 2.2652143 5.0556521 5.0485714 5.0556521s5.0493095-2.2683913 5.0493095-5.0556521c0-2.788-2.2659524-5.0556522-5.0493095-5.0556522m0 10.5954348c-3.0498095 0-5.5312857-2.4849566-5.5312857-5.5397826 0-3.054087 2.4814762-5.5397826 5.5312857-5.5397826 3.0505476 0 5.5320238 2.4856956 5.5320238 5.5397826 0 3.054826-2.4814762 5.5397826-5.5320238 5.5397826" fill="#fff"/><path d="m83.1366119 118.874348c.0051667.045087.1653333 1.638652-.5019048 3.313522-.8561904 2.150869-2.6682142 3.46726-5.386619 3.912217-1.5027619.245391-2.8977619-.107913-4.1466191-1.050304-1.829738-1.382174-2.8822619-3.717826-3.0165952-4.861261-.2745714-1.929131-4.4042143-26.0646959-4.6249048-27.5052611-.0664285-.3717826-1.434119-8.466 5.0788334-10.1009566.2723571-.0251304 1.3455476-.0916521 2.6918333.2453914 2.4947619.6245652 5.9313333 2.6320434 6.9816429 8.8436956 1.8422857 10.8881307 2.9036666 26.9435217 2.9243333 27.2029567" fill="#f5c7a3"/><path d="m70.3590762 81.5471522s9.0158333-1.1086957 10.8861667 9.9494348c1.0045476 5.9411304.6266428 7.8717391 1.4090238 16.079043-5.153381 1.481957-10.4787381 2.103566-15.8358334 2.11687-1.6621904-10.8836957-2.3936428-16.8506957-2.3936428-16.8506957s-1.7175476-9.440913 5.9342857-11.2946521" fill="#e8364b"/><path d="m62.6436929 53.0310565c-1.4451905-1.7487826-2.7235715-3.9720869-3.7288572-6.9788695 0 0-2.2814524 4.4414347-8.564119 5.6573043 0 0 1.2687857-.8987826 1.7433809-1.7443478 0 0-3.2299047 2.4760869-8.4666905 2.533 0 0 1.8312143-.5942609 2.4290715-1.4058261 0 0-6.324.6371304-6.8045 2.6276087l-1.185381-3.4731739.9853572-5.111087 1.426-2.2026087 5.146-3.9654348 6.4701428-1.2690869 6.8207381 2.6438695 2.8401905 1.6918696 2.5515952 4.335-1.2318809 3.8597391z" fill="#9e223e"/><path d="m48.70565 56.2875174-.1387619-.4634348c1.7817619-.5351304 3.4505952-.5343913 4.9614762.0036957l-.162381.4560434c-1.4112381-.5026087-2.9796904-.5011304-4.6603333.0036957" fill="#fff"/><path d="m27.9625905 83.2517348c1.4599524-1.5351739 5.2707381-2.4686957 10.083119-3.649087 10.9784286 2.9993913 20.2511191 1.7376957 25.3174048-.357 4.7297143.8559131 10.1879286 2.0023044 11.6478809 3.5374783 1.9020715 2.0000869 4.192381 43.6589569 4.192381 43.6589569h-41.0964048s-12.0464524-41.1902613-10.1443809-43.1903482" fill="#e8364b"/><path d="m75.7982476 125.850926c-4.6765714.511476-22.0727381.345174-37.0966666.465652 0 0-6.9351429.929087-7.6451905-5.579695-.1358095-5.268522 4.5533095-7.203566 6.8502619-7.161435 1.9367619-.011826 39.2622381 4.913739 39.2622381 4.913739z" fill="#f5c7a3"/><path d="m40.0906762 120.082235c0 .045087-.0273095 1.647522-.8849762 3.232217-1.1005 2.036305-3.0542381 3.131696-5.805119 3.25587-1.5219524.068-2.8660239-.446435-3.9967858-1.528522-1.6562857-1.586913-2.4290714-4.029-2.4290714-5.180565-.0479762-1.947609-1.3344762-26.4017393-1.3854048-27.8578263-.0228809-.3776957-.4369523-8.5761304 6.2214048-9.4379565.2738333.0066521 1.3462857.0665217 2.6453333.5587826 2.4039762.9113478 5.5836905 3.3068695 5.9025477 9.5990869.5602142 11.0293043-.2583334 27.0987393-.2679286 27.3589133" fill="#f5c7a3"/><path d="m31.7532262 81.5161055s9.0837381-.046562 9.6513333 11.1542206c.3055715 6.018-.2952381 7.8916959-.4753333 16.1337389-5.2914048.869957-10.6521905.864044-15.9745952.250565-.3815953-11.0026952-.4125953-17.0147822-.4125953-17.0147822s-.6045-9.5776521 7.2111905-10.5237423" fill="#e8364b"/><path d="m131.14956 122.85183h-54.5430243c-1.2488571 0-2.2607857-1.013347-2.2607857-2.263217l6.5542857-38.148c0-1.2498695 1.0119286-2.2632173 2.2593095-2.2632173h54.5444998c1.248119 0 2.25931 1.0133478 2.25931 2.2632173l-6.55281 38.148c0 1.24987-1.012666 2.263217-2.260785 2.263217" fill="#ffd8dd"/><path d="m75.2460786 120.588613 6.5535476-38.148c0-1.2498695 1.0119286-2.2632173 2.2600476-2.2632173h-.8997381c-1.248119 0-2.2600476 1.0133478-2.2600476 2.2632173l-6.5542857 38.148c0 1.24987 1.0119286 2.263217 2.2607857 2.263217h.8997381c-1.2481191 0-2.2600476-1.013347-2.2600476-2.263217" fill="#ffa2ab"/><path d="m65.5564381 122.85183v.250566c0 1.702217 1.3905714 3.094 3.0896667 3.094h61.3231662c1.698358 0 3.088929-1.391783 3.088929-3.094v-.250566z" fill="#ffd8dd"/><path d="m74.5217119 123.102691v-.250565h-8.9649048v.250565c0 1.701479 1.3898334 3.094 3.0889286 3.094h8.9656429c-1.6990953 0-3.0896667-1.392521-3.0896667-3.094" fill="#ffa2ab"/><path d="m109.545143 101.763552c0 1.322305-1.070238 2.394044-2.389953 2.394044-1.320452 0-2.391428-1.071739-2.391428-2.394044 0-1.322304 1.070976-2.3940433 2.391428-2.3940433 1.319715 0 2.389953 1.0717393 2.389953 2.3940433" fill="#ffa2ab"/><path d="m80.2435 123.077043h48.602095v-.450869h-48.602095z" fill="#ffa2ab" mask="url(#a)"/><path d="m137.737751 125.302841h-125.1233005l16.2676893 39.978306 47.2483884 3.316237 44.7957278-9.858844 15.236894-18.123073z" fill="#9e223e" mask="url(#b)" transform="translate(2 2)"/><path d="m2 79c0-41.9734838 33.8024919-76 75.5003699-76 41.6971381 0 75.4996301 34.0265162 75.4996301 76 0 41.973484-33.802492 76-75.4996301 76-41.697878 0-75.5003699-34.026516-75.5003699-76z" stroke="#ffd8dd" stroke-width="5"/></g></svg>

<?xml version="1.0" encoding="UTF-8"?>
<svg width="157px" height="158px" viewBox="0 0 157 158" version="1.1" xmlns="http://www.w3.org/2000/svg" xmlns:xlink="http://www.w3.org/1999/xlink">
    <!-- Generator: Sketch 61.1 (89650) - https://sketch.com -->
    <title>Group 53</title>
    <desc>Created with Sketch.</desc>
    <defs>
        <polygon id="path-1" points="0 169.26087 154.337929 169.26087 154.337929 0.393217391 0 0.393217391"></polygon>
        <path d="M0.410990291,76.5252524 C0.410990291,118.619563 34.3114175,152.743019 76.1306019,152.743019 L76.1306019,152.743019 C117.948311,152.743019 151.850214,118.619563 151.850214,76.5252524 L151.850214,76.5252524 C151.850214,34.4316845 117.948311,0.307485437 76.1306019,0.307485437 L76.1306019,0.307485437 C34.3114175,0.307485437 0.410990291,34.4316845 0.410990291,76.5252524 L0.410990291,76.5252524 Z" id="path-3"></path>
    </defs>
    <g id="Page-1" stroke="none" stroke-width="1" fill="none" fill-rule="evenodd">
        <g id="ORGANISER-UNE-COLLECTE" transform="translate(-732.000000, -988.000000)">
            <g id="Group-53" transform="translate(733.000000, 988.000000)">
                <g id="Group-47">
                    <path d="M154.111998,77.6339 C154.111998,119.524117 120.200212,153.483465 78.3686643,153.483465 C36.5363786,153.483465 2.62533095,119.524117 2.62533095,77.6339 C2.62533095,35.7436826 36.5363786,1.78433478 78.3686643,1.78433478 C120.200212,1.78433478 154.111998,35.7436826 154.111998,77.6339" id="Fill-1" fill="#FFFFFF"></path>
                    <path d="M46.3810929,33.9930522 C43.344569,34.6028348 40.4851881,35.9598783 38.2480214,38.1462261 C33.7980452,42.4945304 32.9448071,48.5206609 32.4362595,54.3605304 C31.88195,60.7318348 31.2279976,67.0410522 27.0821167,72.2770522 C23.8536881,76.3548348 20.1550929,80.3069652 18.2471167,85.1867043 C14.9544738,93.6083565 15.6578786,104.4344 24.5770214,109.10053 C28.4431643,111.12427 32.9270929,111.762139 37.3165452,111.811661 C44.3350929,111.890748 51.6562595,110.400661 57.077569,106.060487 C59.3841167,104.214139 61.2706881,101.915443 62.9314024,99.498487 C72.4129738,85.7033565 76.5957595,67.5177913 71.553831,51.3677913 C69.0620214,43.3844435 64.0156643,36.5364 55.3984024,34.2761391 C52.4999024,33.5155739 49.3548786,33.3958348 46.3810929,33.9930522" id="Fill-3" fill="#9E223E"></path>
                    <path d="M67.1926476,80.4763739 L57.2099095,78.0697652 L56.7987905,71.4109391 L45.3760286,62.8525478 L45.0579095,77.8480261 C45.0579095,77.8480261 33.1103619,81.2273304 33.009981,81.3234174 C43.3721,96.0550261 63.5804095,86.2312435 67.1926476,80.4763739" id="Fill-5" fill="#F5C7A3"></path>
                    <path d="M62.458431,55.8385696 C62.458431,55.8385696 63.048169,54.0328739 63.9634071,54.6714826 C64.8779071,55.3115696 64.7568595,62.6733087 61.9668595,63.0923957 C59.1768595,63.5114826 62.458431,55.8385696 62.458431,55.8385696" id="Fill-7" fill="#F5C7A3"></path>
                    <path d="M39.4189357,55.8385696 C39.4189357,55.8385696 38.8284595,54.0328739 37.9139595,54.6714826 C36.9987214,55.3115696 37.119769,62.6733087 39.9105071,63.0923957 C42.7005071,63.5114826 39.4189357,55.8385696 39.4189357,55.8385696" id="Fill-9" fill="#F5C7A3"></path>
                    <path d="M42.5103738,43.7006435 L50.9180167,40.8099043 L59.3249214,43.7006435 L62.576231,48.3534696 L62.5341595,57.3767739 C62.5341595,57.3767739 62.4640405,61.8884261 61.801969,63.7207304 C61.1384214,65.5537739 58.5226119,73.5548609 50.9180167,73.9776435 C43.3126833,73.5548609 40.6968738,65.5537739 40.0340643,63.7207304 C39.3712548,61.8884261 39.3011357,57.3767739 39.3011357,57.3767739 L39.3099929,48.3534696 L42.5103738,43.7006435 Z" id="Fill-11" fill="#F5C7A3"></path>
                    <path d="M53.4333714,64.770887 C53.3639905,66.1042783 52.2657048,67.1649304 50.9164667,67.1649304 C49.5679667,67.1649304 48.4689429,66.1042783 48.4003,64.770887 L53.4333714,64.770887 Z" id="Fill-13" fill="#FFFFFF"></path>
                    <path d="M58.3304119,53.3544261 C55.5470548,53.3544261 53.2818405,55.6220783 53.2818405,58.4100783 C53.2818405,61.1973391 55.5470548,63.4657304 58.3304119,63.4657304 C61.113769,63.4657304 63.3789833,61.1973391 63.3789833,58.4100783 C63.3789833,55.6220783 61.113769,53.3544261 58.3304119,53.3544261 M58.3304119,63.9498609 C55.2806024,63.9498609 52.7991262,61.4649043 52.7991262,58.4100783 C52.7991262,55.3559913 55.2806024,52.8702957 58.3304119,52.8702957 C61.3809595,52.8702957 63.8624357,55.3559913 63.8624357,58.4100783 C63.8624357,61.4649043 61.3809595,63.9498609 58.3304119,63.9498609" id="Fill-15" fill="#FFFFFF"></path>
                    <path d="M43.8410119,53.3544261 C41.0576548,53.3544261 38.7924405,55.6220783 38.7924405,58.4100783 C38.7924405,61.1973391 41.0576548,63.4657304 43.8410119,63.4657304 C46.624369,63.4657304 48.8903214,61.1973391 48.8903214,58.4100783 C48.8903214,55.6220783 46.624369,53.3544261 43.8410119,53.3544261 M43.8410119,63.9498609 C40.7912024,63.9498609 38.3097262,61.4649043 38.3097262,58.4100783 C38.3097262,55.3559913 40.7912024,52.8702957 43.8410119,52.8702957 C46.8915595,52.8702957 49.3730357,55.3559913 49.3730357,58.4100783 C49.3730357,61.4649043 46.8915595,63.9498609 43.8410119,63.9498609" id="Fill-17" fill="#FFFFFF"></path>
                    <path d="M83.1366119,118.874348 C83.1417786,118.919435 83.3019452,120.513 82.6347071,122.18787 C81.7785167,124.338739 79.9664929,125.65513 77.2480881,126.100087 C75.7453262,126.345478 74.3503262,125.992174 73.101469,125.049783 C71.271731,123.667609 70.2192071,121.331957 70.0848738,120.188522 C69.8103024,118.259391 65.6806595,94.1238261 65.459969,92.6832609 C65.3935405,92.3114783 64.02585,84.2172609 70.5388024,82.5823043 C70.8111595,82.5571739 71.88435,82.4906522 73.2306357,82.8276957 C75.7253976,83.4522609 79.161969,85.4597391 80.2122786,91.6713913 C82.0545643,102.559522 83.1159452,118.614913 83.1366119,118.874348" id="Fill-19" fill="#F5C7A3"></path>
                    <path d="M70.3590762,81.5471522 C70.3590762,81.5471522 79.3749095,80.4384565 81.2452429,91.496587 C82.2497905,97.4377174 81.8718857,99.3683261 82.6542667,107.57563 C77.5008857,109.057587 72.1755286,109.679196 66.8184333,109.6925 C65.1562429,98.8088043 64.4247905,92.8418043 64.4247905,92.8418043 C64.4247905,92.8418043 62.7072429,83.4008913 70.3590762,81.5471522" id="Fill-21" fill="#E8364B"></path>
                    <path d="M62.6436929,53.0310565 C61.1985024,51.2822739 59.9201214,49.0589696 58.9148357,46.052187 C58.9148357,46.052187 56.6333833,50.4936217 50.3507167,51.7094913 C50.3507167,51.7094913 51.6195024,50.8107087 52.0940976,49.9651435 C52.0940976,49.9651435 48.8641929,52.4412304 43.6274071,52.4981435 C43.6274071,52.4981435 45.4586214,51.9038826 46.0564786,51.0923174 C46.0564786,51.0923174 39.7324786,51.7294478 39.2519786,53.7199261 L38.0665976,50.2467522 L39.0519548,45.1356652 L40.4779548,42.9330565 L45.6239548,38.9676217 L52.0940976,37.6985348 L58.9148357,40.3424043 L61.7550262,42.0342739 L64.3066214,46.3692739 L63.0747405,50.229013 L62.6436929,53.0310565 Z" id="Fill-23" fill="#9E223E"></path>
                    <path d="M48.70565,56.2875174 L48.5668881,55.8240826 C50.34865,55.2889522 52.0174833,55.2896913 53.5283643,55.8277783 L53.3659833,56.2838217 C51.9547452,55.781213 50.3862929,55.7826913 48.70565,56.2875174" id="Fill-25" fill="#FFFFFF"></path>
                    <path d="M27.9625905,83.2517348 C29.4225429,81.7165609 33.2333286,80.7830391 38.0457095,79.6026478 C49.0241381,82.6020391 58.2968286,81.3403435 63.3631143,79.2456478 C68.0928286,80.1015609 73.5510429,81.2479522 75.0109952,82.7831261 C76.9130667,84.783213 79.2033762,126.442083 79.2033762,126.442083 L38.1069714,126.442083 C38.1069714,126.442083 26.060519,85.2518217 27.9625905,83.2517348" id="Fill-27" fill="#E8364B"></path>
                    <path d="M75.7982476,125.850926 C71.1216762,126.362402 53.7255095,126.1961 38.701581,126.316578 C38.701581,126.316578 31.7664381,127.245665 31.0563905,120.736883 C30.920581,115.468361 35.6097,113.533317 37.9066524,113.575448 C39.8434143,113.563622 77.1688905,118.489187 77.1688905,118.489187 L75.7982476,125.850926 Z" id="Fill-29" fill="#F5C7A3"></path>
                    <path d="M40.0906762,120.082235 C40.0906762,120.127322 40.0633667,121.729757 39.2057,123.314452 C38.1052,125.350757 36.1514619,126.446148 33.400581,126.570322 C31.8786286,126.638322 30.5345571,126.123887 29.4037952,125.0418 C27.7475095,123.454887 26.9747238,121.0128 26.9747238,119.861235 C26.9267476,117.913626 25.6402476,93.4594957 25.589319,92.0034087 C25.5664381,91.625713 25.1523667,83.4272783 31.8107238,82.5654522 C32.0845571,82.5721043 33.1570095,82.6319739 34.4560571,83.1242348 C36.8600333,84.0355826 40.0397476,86.4311043 40.3586048,92.7233217 C40.918819,103.752626 40.1002714,119.822061 40.0906762,120.082235" id="Fill-31" fill="#F5C7A3"></path>
                    <path d="M31.7532262,81.5161055 C31.7532262,81.5161055 40.8369643,81.4695435 41.4045595,92.6703261 C41.710131,98.6883261 41.1093214,100.562022 40.9292262,108.804065 C35.6378214,109.674022 30.2770357,109.668109 24.954631,109.05463 C24.5730357,98.0519348 24.5420357,92.0398478 24.5420357,92.0398478 C24.5420357,92.0398478 23.9375357,82.4621957 31.7532262,81.5161055" id="Fill-33" fill="#E8364B"></path>
                    <path d="M131.14956,122.85183 L76.6065357,122.85183 C75.3576786,122.85183 74.34575,121.838483 74.34575,120.588613 L80.9000357,82.440613 C80.9000357,81.1907435 81.9119643,80.1773957 83.1593452,80.1773957 L137.703845,80.1773957 C138.951964,80.1773957 139.963155,81.1907435 139.963155,82.440613 L133.410345,120.588613 C133.410345,121.838483 132.397679,122.85183 131.14956,122.85183" id="Fill-35" fill="#FFD8DD"></path>
                    <path d="M75.2460786,120.588613 L81.7996262,82.440613 C81.7996262,81.1907435 82.8115548,80.1773957 84.0596738,80.1773957 L83.1599357,80.1773957 C81.9118167,80.1773957 80.8998881,81.1907435 80.8998881,82.440613 L74.3456024,120.588613 C74.3456024,121.838483 75.357531,122.85183 76.6063881,122.85183 L77.5061262,122.85183 C76.2580071,122.85183 75.2460786,121.838483 75.2460786,120.588613" id="Fill-37" fill="#FFA2AB"></path>
                    <path d="M65.5564381,122.85183 L65.5564381,123.102396 C65.5564381,124.804613 66.9470095,126.196396 68.6461048,126.196396 L129.969271,126.196396 C131.667629,126.196396 133.0582,124.804613 133.0582,123.102396 L133.0582,122.85183 L65.5564381,122.85183 Z" id="Fill-39" fill="#FFD8DD"></path>
                    <path d="M74.5217119,123.102691 L74.5217119,122.852126 L65.5568071,122.852126 L65.5568071,123.102691 C65.5568071,124.80417 66.9466405,126.196691 68.6457357,126.196691 L77.6113786,126.196691 C75.9122833,126.196691 74.5217119,124.80417 74.5217119,123.102691" id="Fill-41" fill="#FFA2AB"></path>
                    <path d="M109.545143,101.763552 C109.545143,103.085857 108.474905,104.157596 107.15519,104.157596 C105.834738,104.157596 104.763762,103.085857 104.763762,101.763552 C104.763762,100.441248 105.834738,99.3695087 107.15519,99.3695087 C108.474905,99.3695087 109.545143,100.441248 109.545143,101.763552" id="Fill-43" fill="#FFA2AB"></path>
                    <mask id="mask-2" fill="white">
                        <use xlink:href="#path-1"></use>
                    </mask>
                    <g id="Clip-46"></g>
                    <polygon id="Fill-45" fill="#FFA2AB" mask="url(#mask-2)" points="80.2435 123.077043 128.845595 123.077043 128.845595 122.626174 80.2435 122.626174"></polygon>
                </g>
                <g id="Group-50" transform="translate(2.000000, 2.000000)">
                    <mask id="mask-4" fill="white">
                        <use xlink:href="#path-3"></use>
                    </mask>
                    <g id="Clip-49"></g>
                    <polygon id="Fill-48" fill="#9E223E" mask="url(#mask-4)" points="137.737751 125.302841 12.6144505 125.302841 28.8821398 165.281147 76.1305282 168.597384 120.926256 158.73854 136.16315 140.615467"></polygon>
                </g>
                <path d="M2,79 C2,37.0265162 35.8024919,3 77.5003699,3 C119.197508,3 153,37.0265162 153,79 C153,120.973484 119.197508,155 77.5003699,155 C35.8024919,155 2,120.973484 2,79 Z" id="Stroke-51" stroke="#FFD8DD" stroke-width="5"></path>
            </g>
        </g>
    </g>
</svg>
